packages/icons/svg/Fill/gift.svg

<svg fill="none" height="24" viewBox="0 0 24 24" width="24" xmlns="http://www.w3.org/2000/svg"><path clip-rule="evenodd" d="m18.4434 20.9999h-5.625v-5.728h6.545v4.819c0 .502-.412.909-.92.909zm-13.80668-.9097v-4.818h6.54498v5.728h-5.62498c-.508 0-.92-.408-.92-.91zm15.46288-12.99944h-1.842c.179-.373.288-.786.288-1.228 0-1.578-1.285-2.863-2.864-2.863-1.881 0-3.021 1.32-3.682 2.569-.661-1.249-1.8-2.569-3.68097-2.569-1.579 0-2.865 1.285-2.865 2.863 0 .442.11.855.289 1.228h-1.842c-.497 0-.901.586-.901 1.31v3.92604c0 .723.404 1.31.901 1.31h.736 6.54497v-6.54604h1.637v6.54604h6.545.736c.497 0 .9-.587.9-1.31v-3.92604c0-.724-.403-1.31-.9-1.31zm-4.418.00006h-2.581c.386-1.016 1.18-2.454 2.581-2.454.677 0 1.228.55 1.228 1.226 0 .677-.551 1.228-1.228 1.228zm-7.36297 0c-.677 0-1.228-.551-1.228-1.228 0-.676.551-1.226 1.228-1.226 1.401 0 2.19497 1.438 2.58097 2.454z" fill="#6b7280" fill-rule="evenodd"/></svg>

<svg width="24" height="24" viewBox="0 0 24 24" fill="none" xmlns="http://www.w3.org/2000/svg">
<g id="Icon/Fill/gift">
<path id="Mask" fill-rule="evenodd" clip-rule="evenodd" d="M18.4433 21H12.8183V15.272H19.3633V20.091C19.3633 20.593 18.9513 21 18.4433 21ZM4.63661 20.0905V15.2725H11.1816V21.0005H5.55661C5.04861 21.0005 4.63661 20.5925 4.63661 20.0905ZM20.0995 7.0908H18.2575C18.4365 6.7178 18.5455 6.3048 18.5455 5.8628C18.5455 4.2848 17.2605 2.9998 15.6815 2.9998C13.8005 2.9998 12.6605 4.3198 11.9995 5.5688C11.3385 4.3198 10.1995 2.9998 8.31851 2.9998C6.73951 2.9998 5.45351 4.2848 5.45351 5.8628C5.45351 6.3048 5.56351 6.7178 5.74251 7.0908H3.90051C3.40351 7.0908 2.99951 7.6768 2.99951 8.4008V12.3268C2.99951 13.0498 3.40351 13.6368 3.90051 13.6368H4.63651H11.1815V7.0908H12.8185V13.6368H19.3635H20.0995C20.5965 13.6368 20.9995 13.0498 20.9995 12.3268V8.4008C20.9995 7.6768 20.5965 7.0908 20.0995 7.0908ZM15.6815 7.0908H13.1005C13.4865 6.0748 14.2805 4.6368 15.6815 4.6368C16.3585 4.6368 16.9095 5.1868 16.9095 5.8628C16.9095 6.5398 16.3585 7.0908 15.6815 7.0908ZM8.31851 7.0908C7.64151 7.0908 7.09051 6.5398 7.09051 5.8628C7.09051 5.1868 7.64151 4.6368 8.31851 4.6368C9.71951 4.6368 10.5135 6.0748 10.8995 7.0908H8.31851Z" fill="#000000"/>
</g>
</svg>
